X: 3
T: Jiggery Pokerwork
R: jig
M: 6/8
L: 1/8
K: Emin
E2F GFE|B2c A3|A2B G2B|BAG FGF|
E2F GFE|B2c A3|A2B G2B|BAF E3:|
|:B^AB GEB|^ABG EBA|BGE cGE|dAF gdB|
B^AB GEB|^ABG EBA|=A3 d3|BAF E3:|

